assets/printer.svg

<?xml version="1.0" encoding="UTF-8"?>
<svg width="20px" height="18px" viewBox="0 0 20 18" version="1.1" xmlns="http://www.w3.org/2000/svg" xmlns:xlink="http://www.w3.org/1999/xlink">
    <!-- Generator: Sketch 47.1 (45422) - http://www.bohemiancoding.com/sketch -->
    <title>Mask</title>
    <desc>Created with Sketch.</desc>
    <defs>
        <path d="M17,5 L3,5 C1.34,5 0,6.34 0,8 L0,14 L4,14 L4,18 L16,18 L16,14 L20,14 L20,8 C20,6.34 18.66,5 17,5 Z M14,16 L6,16 L6,11 L14,11 L14,16 Z M17,9 C16.45,9 16,8.55 16,8 C16,7.45 16.45,7 17,7 C17.55,7 18,7.45 18,8 C18,8.55 17.55,9 17,9 Z M16,0 L4,0 L4,4 L16,4 L16,0 Z" id="path-1"></path>
    </defs>
    <g id="Icons" stroke="none" stroke-width="1" fill="none" fill-rule="evenodd">
        <g id="extra-/-printer" transform="translate(-2.000000, -3.000000)">
            <g id="printer">
                <g id="Icon-🎨" transform="translate(2.000000, 3.000000)">
                    <mask id="mask-2" fill="white">
                        <use xlink:href="#path-1"></use>
                    </mask>
                    <use id="Mask" fill="#001833" fill-rule="nonzero" xlink:href="#path-1"></use>
                </g>
            </g>
        </g>
    </g>
</svg>

<?xml version="1.0" encoding="utf-8"?>
<!-- Generator: Adobe Illustrator 21.1.0, SVG Export Plug-In . SVG Version: 6.00 Build 0)  -->
<svg version="1.1" id="Layer_1" xmlns="http://www.w3.org/2000/svg" xmlns:xlink="http://www.w3.org/1999/xlink" x="0px" y="0px"
	 viewBox="0 0 20 18" style="enable-background:new 0 0 20 18;" xml:space="preserve">
<style type="text/css">
	.st0{fill:#001833;}
</style>
<path id="path-1_1_" class="st0" d="M17,5H3C1.3,5,0,6.3,0,8v6h4v4h12v-4h4V8C20,6.3,18.7,5,17,5z M14,16H6v-5h8V16z M17,9
	c-0.5,0-1-0.4-1-1s0.5-1,1-1s1,0.4,1,1S17.5,9,17,9z M16,0H4v4h12V0z"/>
</svg>
